X: 16804
T: Harrow, The
R: jig
M: 6/8
K: Fmajor
fag fdB|cAF Acf|bag agf|edc bag|
fag fdB|cAF Acf|edc bag|afff2c:|
|:Acf agf|fdf bab|ece bag|agf gec|
Acf agf|fdf bab|edc bag|afff2c:|

